X:73
T:The Glountane Highland
C:Terence "Cuz" Teahan
B:Terry "Cuz" Teahan "Sliabh Luachra on Parade" 1980
Z:Patrick Cavanagh
M:4/4
L:1/8
R:Highland
K:D
F | E2 ED E2 FA | BBc/B/A BAFA | E2 EF E2 FA | BedB A2 A :| 
f | eccA Bccf | ecB/c/B AFFf | eccA Bccf | ecBc BAA :|| 

